X:12
T:Arab Steed,The. WHG.012
R:air
S:W.H.Giles MS,Bampton,Oxfordshire,1839p12
O:England
H:donated by Mrs W.R.Kettlewell to VWML,Apr 1927.
A:Bampton, Oxfordshire
N:Bar 17 was |d e/ f2zf|. Bar 32 was |e3 d/ d3F|.
Z:PJHeadford – VMP 2009
M:3/4
L:1/8
Q:3/4=60
K:G
d|d3 Bce|d<B G2G2|e3 dcB|A2z2zd|\
d3 Bc> e|d<B G3G|e> d d3F|G2-Gzz2|
z2z2zB|A3A Bc|e> d B3G|A3 Bc^c|(^cd3)zB|\
B3B ^c ^d|e> B Bz2B|A3A B ^c|d> e f2zf|
f>e d2″tr”T^c2|B2Bzz2|d2z2z2|d2z2z2|\
f>e d2^c2|d6|d6|d2Hd(D/4E/4F/4G/4A/4B/4c/4)^c/4 d|
d3 Bce|d< B G3G|e3 dcB|A2-Azzd|\
d3 Bce|d< BG2G|e> dd3F|G2-G B ^A B|
d3 c B A|(e2d)zzB|A3 B c d|B2-B B c d|\
e3 e d ^c|Hd4zB|A> A Hd3F|G4z|]

